logo/gwt.svg

<?xml version="1.0" encoding="UTF-8" standalone="no"?>
<svg width="256px" height="270px" viewBox="0 0 256 270" version="1.1" xmlns="http://www.w3.org/2000/svg" xmlns:xlink="http://www.w3.org/1999/xlink" preserveAspectRatio="xMidYMid">
	<g>
		<path d="M103.995568,27.798338 C104.917452,26.8764543 104.917452,25.3163435 103.995568,24.3944598 L80.3457064,0.744598338 C79.4238227,-0.177285319 77.8637119,-0.177285319 76.9418283,0.744598338 L0.921883657,76.7290859 C1.39610545e-14,77.6509695 1.39610545e-14,79.2110803 0.921883657,80.132964 L76.9418283,156.152909 C77.8637119,157.074792 79.4238227,157.074792 80.3457064,156.152909 L103.995568,132.503047 C104.917452,131.581163 104.917452,130.021053 103.995568,129.099169 L55.0648199,80.1684211 C54.1429363,79.2465374 54.1429363,77.6864266 55.0648199,76.7645429 L103.995568,27.798338 L103.995568,27.798338 Z" fill="#F93535"></path>
		<path d="M179.164543,0.744598338 C178.242659,-0.177285319 176.682548,-0.177285319 175.760665,0.744598338 L99.8470914,76.6227147 C98.9252078,77.5445983 98.9252078,79.1047091 99.8470914,80.0265928 L123.496953,103.711911 C124.418837,104.633795 125.978947,104.633795 126.900831,103.711911 L175.760665,54.8520776 C176.682548,53.9301939 178.242659,53.9301939 179.164543,54.8520776 L201.041551,76.7290859 C201.963435,77.6509695 201.963435,79.2110803 201.041551,80.132964 L152.110803,129.063712 C151.18892,129.985596 151.18892,131.545706 152.110803,132.46759 L175.760665,156.117452 C176.682548,157.039335 178.242659,157.039335 179.164543,156.117452 L255.14903,80.132964 C256.070914,79.2110803 256.070914,77.6509695 255.14903,76.7290859 L179.164543,0.744598338 L179.164543,0.744598338 Z" fill="#F93535"></path>
		<path d="M45.9523546,224.301385 L45.9523546,240.398892 L64.1772853,240.398892 L64.1772853,247.880332 C60.5252078,251.000554 55.8448753,252.560665 50.3135734,252.560665 C44.4277008,252.560665 39.5700831,250.645983 35.4925208,246.745706 C31.5213296,242.774515 29.6066482,237.952355 29.6066482,232.031025 C29.6066482,226.074238 31.5567867,221.252078 35.598892,217.316343 C39.6764543,213.345152 44.498615,211.395014 50.3490305,211.395014 C56.234903,211.395014 60.9861496,213.026039 64.8509695,216.359003 C68.3257618,212.636011 73.5024931,208.132964 76.3745152,204.8 C69.1767313,198.204986 60.4188366,194.907479 50.3490305,194.907479 C39.499169,194.907479 30.5285319,198.382271 22.9761773,205.509141 C15.3883657,212.671468 11.7362881,221.358449 11.7362881,232.031025 C11.7362881,242.703601 15.4238227,251.390582 23.0116343,258.552909 C30.4930748,265.53795 39.7119114,269.048199 50.3844875,269.048199 C62.6171745,269.048199 74.034349,263.552355 80.8775623,254.404432 L81.1257618,254.049861 L81.1257618,224.265928 L45.9523546,224.265928 L45.9523546,224.301385 Z" fill="#424242"></path>
		<path d="M158.599446,196.006648 L146.508587,235.363989 L134.985042,196.006648 L121.014958,196.006648 L109.52687,235.363989 L97.4360111,196.006648 L79.6365651,196.006648 L101.407202,267.984488 L116.263712,267.984488 L127.964543,229.655402 L139.665374,267.984488 L154.521884,267.984488 L176.292521,196.006648 L158.599446,196.006648 Z" fill="#424242"></path>
		<path d="M181.291967,196.006648 L176.292521,212.52964 L197.637673,212.52964 L197.637673,267.984488 L217.848199,267.984488 L217.848199,212.52964 L239.157895,212.52964 L239.157895,196.006648 L181.291967,196.006648 Z" fill="#424242"></path>
	</g>
</svg>

<svg viewBox="0 0 256 270" xmlns="http://www.w3.org/2000/svg"><g fill="#F93535"><path d="M103.99 27.79c.92-.93.92-2.49 0-3.41L80.34.73c-.93-.93-2.49-.93-3.41 0L.91 76.71c-.93.92-.93 2.48-.001 3.4l76.01 76.01c.92.92 2.48.92 3.4 0l23.64-23.65c.92-.93.92-2.49 0-3.41L55.01 80.12c-.93-.93-.93-2.49 0-3.41l48.93-48.97v-.001Z"/><path d="M179.16.74c-.93-.93-2.49-.93-3.41 0L99.83 76.61c-.93.92-.93 2.48 0 3.4l23.64 23.68c.92.92 2.48.92 3.4 0l48.85-48.86c.92-.93 2.48-.93 3.4 0l21.87 21.87c.92.92.92 2.48 0 3.4l-48.94 48.93c-.93.92-.93 2.48 0 3.4l23.64 23.64c.92.92 2.48.92 3.4 0l75.98-75.99c.92-.93.92-2.49 0-3.41L179.08.68V.67Z"/></g><g fill="#424242"><path d="M45.95 224.3v16.09h18.22v7.48c-3.66 3.12-8.34 4.68-13.87 4.68 -5.89 0-10.75-1.92-14.83-5.82 -3.98-3.98-5.89-8.8-5.89-14.72 0-5.96 1.95-10.78 5.99-14.72 4.07-3.98 8.89-5.93 14.75-5.93 5.88 0 10.63 1.63 14.5 4.96 3.47-3.73 8.65-8.23 11.52-11.56 -7.2-6.6-15.96-9.9-26.03-9.9 -10.85 0-19.83 3.47-27.38 10.6 -7.59 7.16-11.24 15.84-11.24 26.52 0 10.67 3.68 19.35 11.27 26.52 7.48 6.98 16.7 10.49 27.37 10.49 12.23 0 23.64-5.5 30.49-14.65l.24-.36v-29.79H45.88v.03Z"/><path d="M158.59 196l-12.1 39.35 -11.53-39.36h-13.98l-11.49 39.35 -12.1-39.36h-17.8l21.77 71.97h14.85l11.7-38.33 11.7 38.32h14.85l21.77-71.98h-17.7Z"/><path d="M181.29 196l-5 16.52h21.34v55.45h20.21v-55.46h21.3v-16.53h-57.87Z"/></g></svg>
